X:1
T:Title
%%score { ( 1 3 ) | ( 2 4 ) }
L:1/8
M:4/4
K:Eb
V:1 treble nm="Grand Piano"
V:3 treble 
V:2 bass 
V:4 bass 
V:1
 z4 z2[Q:1/4=100] EF | G2 G>_G =G2 cc | BGE[DF] [EG]2 [EG][DF] | E3 C E2 [DF][DF] | G6 EF | %5
 G2 G>_G =G2 [Ac][Ac] | [GB]GE[B,DF] [B,EG]2 [B,EG][B,EG] | [DF]2 [DF][EG] [FA]2 [EG]F | %8
[M:3/4] E6 |[M:1/4] BB |[M:4/4] e6 z2 | B6 z2 | G6 F2 | B6 z2 | z2 [B,G]>[B,G] [B,G]2 [EAc][EG] | %15
 B6 z2 | G6 z2 |[M:3/4] E6 |] %18
V:2
 z4 z2 [E,G,B,][E,A,B,] | [E,B,E]2 [E,B,E]>[E,=A,E] [E,B,E]2 [E,_A,E][E,A,E] | %2
 [E,G,E][E,B,][C,G,C][B,,B,] [E,B,]2 [E,B,][B,,B,] | [C,G,C]3 [C,G,] [C,G,C]2 [B,,B,][B,,B,] | %4
 [E,B,E]6 [E,G,B,][E,A,B,] | [E,B,E]2 [E,B,E]>[E,=A,E] [E,B,E]2 [E,E][E,E] | %6
 [E,E][E,E]C,B,, E,2 E,E, | [B,,B,]2 [B,,B,][B,,B,] [B,,B,]2 [B,,B,][A,D] |[M:3/4] [E,G,]6 | %9
[M:1/4] z2 |[M:4/4] z2 [E,B,]>[E,B,] [E,B,]2 E,E, | E,2 B,,B,, E,2 z2 | %12
 z2 [C,C]>[C,C] [C,C]2 (3[F,C]-[F,CE]F, | B,,2 B,,B,, B,,2[K:treble] BB | e6[K:bass] z2 | %15
 E,2 B,,B,, E,2 z2 | z2 [C,C][C,C] [C,C][C,G,][B,,A,][B,,B,] |[M:3/4] [E,G,]6 |] %18
V:3
 x8 | x8 | x8 | x8 | x8 | x8 | x8 | x8 |[M:3/4] x6 |[M:1/4] x2 |[M:4/4] z2 G>G G2 [EAc][EG] | %11
 [EG]2 [DF][DF] [EG]2 (3GFE | z2 E>E E2 (3z G[CE=A] | [B,D]2 [B,D][CE] [DF]2 z2 | x8 | %15
 [EG]2 [DF][DF] [EG]2 (3GFE | z2 EE EE[DF][DG] |[M:3/4] x6 |] %18
V:4
 x8 | x8 | x8 | x8 | x8 | x8 | x8 | x8 |[M:3/4] x6 |[M:1/4] x2 |[M:4/4] x8 | x8 | x8 | %13
 x6[K:treble] x2 | z2[K:bass] E,>E, E,2 E,E, | x8 | x8 |[M:3/4] x6 |] %18

